X: 20
M:6/8
L:1/8
K:D
uD|\
|:u(c/d/)|\
ecA ABA | edc d2B | AGF G2B | BGE E2F |
ecA ABA | edc d2B | AGF G2B | AFD D2:|
|:(f/g/)|\
agf g2e | fec d2B | AGF G2B | BGE E(fg) |
agf g2e | fdc d2B | AGF G2B | AFD D2 "_D.C.":|


